!!!COM:	Bach, Johann Sebastian
!!!CDT:	1685/02/21/-1750/07/28/
!!!OTL@@DE:	Liebster Immanuel, Herzog der Frommen
!!!SCT:	BWV 123/16
!!!PC#:	194
!!!AGN:	chorale
**kern	**kern	**kern	**kern	**chordsymbol
*ICvox	*ICvox	*ICvox	*ICvox	*
*Ibass	*Itenor	*Ialto	*Isoprn	*
*I"Bass	*I"Tenor	*I"Alto	*I"Soprano	*
*clefF4	*clefGv2	*clefG2	*clefG2	*
*k[f#c#]	*k[f#c#]	*k[f#c#]	*k[f#c#]	*
*b:	*b:	*b:	*b:	*b:
*M3/2	*M3/2	*M3/2	*M3/2	*M3/2
*MM100	*MM100	*MM100	*MM100	*MM100
=1-	=1-	=1-	=1-	=1-
2BB	2B	2f#	2dd	Bm
4B	2B	2f#	2dd	Bmm
4A	.	.	.	Bmm
4G#	4B	4e#	2dd	E#dd
4F#	4A	4f#	.	DM
=2	=2	=2	=2	=2
2E#	2G#	2g#	2.cc#	C#Mm
2C#	2c#	2e#	.	C#Mm
.	.	.	4b	C#Mm
2F#	2c#	2f#	2a	F#m
=3	=3	=3	=3	=3
2BB	2d	2gn	2b	GM
2C#	4en	2en	2g	AMm
.	4A	.	.	AMm
2D	2A	2d	4f#	DM
.	.	.	4e	DM
=4	=4	=4	=4	=4
2A	2.A	2d	1e	AMm
2AA	.	2c#	.	AMm
.	4G	.	.	AMm
2D;	2F#;	2A;	2d;	DM
=5	=5	=5	=5	=5
2F#	2A	2d	2a	DM
2C#	2A	2e	2a	AM
2D	2A	2d	2f#	DM
=6	=6	=6	=6	=6
2G	4G	2d	2.b	GM
.	4A	.	.	GM
2E	2B	2g	.	Em
.	.	.	4cc#	Em
2BB	2B	2f#	2dd	Bm
=7	=7	=7	=7	=7
2GG	2B	2f#	4d	GMM
.	.	.	4e	GMM
2GG	2B	4e	2.e	Emm
.	.	4d	.	Emm
2G	2e	4c#	.	C#d
.	.	4B	4f#	Em
=8	=8	=8	=8	=8
!!The pitches in the following record were jumbled among the voices. I've fixed this. (Nathaniel Condit-Schultz, 2018/7/20).
1.F#;	1.A#;	1.c#;	1.f#;	F#M
=9:|!	=9:|!	=9:|!	=9:|!	=9:|!
2BB	2B	2d	2f#	Bm
2D	2B	2d	2f#	Bm
2E	2B	2d	2g	Emm
=10	=10	=10	=10	=10
2C#	2A	2e	2a	AM
1D;	1A;	1d;	1f#;	DM
=11	=11	=11	=11	=11
2D	2B	2f#	2b	Bm
2C#	2c#	2e	2a#	A#d
2BB	2d	2f#	2b	Bm
=12	=12	=12	=12	=12
2F#	2A#	2f#	2cc#	F#M
1F#;	1c#;	1a#;	1f#;	F#M
=13	=13	=13	=13	=13
2B	2B	2f#	2dd	Bm
2E	2A#	2g	2cc#	A#dd
2G	2B	2e	2b	Em
=14	=14	=14	=14	=14
2F#	2.c#	2.f#	2.a#	F#Mm
2E	.	.	.	F#Mm
.	4c#	4f#	4f#	F#Mm
2D	2B	2f#	2b	Bm
=15	=15	=15	=15	=15
2E	4e	2g	4cc#	C#d
.	4d	.	4dd	E(mm)
2F#	2c#	2f#	2.a#	F#M
2FF#	2c#	2f#	.	F#M
.	.	.	4b	F#M
=16	=16	=16	=16	=16
1.BB;	1.d#;	1.f#;	1.b;	BM
==	==	==	==	==
*-	*-	*-	*-	*-
!!!hum2abc: -Q ''
!!!title: @{PC#}. @{OTL@@DE}
!!!YOR1: 371 vierstimmige Choralges&auml;nge von Johann Sebastian Bach, 
!!!YOR2: 4th ed. by Alfred D&ouml;rffel (Leipzig: Breitkopf und H&auml;rtel, 
!!!YOR2: c.1875). 178 pp. Plate "V.A.10".  reprint: J.S. Bach, 371 Four-Part 
!!!YOR4: Chorales (New York: Associated Music Publishers, Inc., c.1940).
!!!SMS: B&H, 4th ed, Alfred D&ouml;rffel, c.1875, plate V.A.10
!!!EED:  Craig Stuart Sapp
!!!EEV:  2009/05/22
!!! **chordsymbol annotations generated by the FlexibleChoraleHarmonicAnalysis package.
!!! Condit-Schultz, Ju, and Fujinaga, ISMIR (2018)
!!! Created on Sat Mar 02 11:23:32 2019
